X:1
T:Liederkreis, Op.39
T:Schöne Fremde
T:6. Schöne Fremde
T:Robert Schumann
T:Liederkreis, Op.39
T:Joseph von Eichendorff
T:OpenScore (CC0)
T:OpenScore (CC0)
T:OpenScore (CC0)
C:Robert Schumann
Z:Joseph von Eichendorff
Z:OpenScore (CC0)
%%score ( 1 2 ) { ( 3 4 ) | ( 5 6 ) }
L:1/8
Q:1/4=70
M:4/4
K:B
V:1 treble nm="Voice"
V:2 treble 
V:3 treble nm="Piano"
V:4 treble 
V:5 bass 
V:6 bass 
V:1
"^Innig, bewegt" z4 z2!p! A2 | G2 G G G2 G c | c2 F2 z2 F2 | (F>B) B B A2 G2 | %4
w: Es|rau- schen die Wi- pfel und|schau- ern, als|mach- * ten zu die- ser|
 F2 B3/2[Q:1/4=68]"_dim." B/ A A G[Q:1/4=66] G/ G/ |[Q:1/4=64] F F z[Q:1/4=62] d c c B B/!p! B/ | %6
w: Stund' um die halb ver- sun- ken en|Mau- ern die al- ten Göt- ter die|
[Q:1/4=70]"^a tempo" ^A2 z2 z2!p! c2[Q:1/4=72]"_a tempo" |!<(! B2 B B!<)!!mp! (B2 e) g | %8
w: Rund'. Hier|hin- ter den Myr- * then-|
 (g3 f) e2 z B | ^A3 A A2 d f | (f3 ^e d2) z A | G3 G c2 G G | G2 F2 z2 z F | F2 B2 A2 G G | F8- | %15
w: bäu- * men, in|heim- lich däm- mern- der|Pracht, * * was|sprichst du wirr, wie in|Träu- men, zu|mir, phan- ta- sti- sche|Nacht!|
 F2 z2 z2 z!p! F |!<(! F3 F F F F!<)!!mp! F | !>!A2 F2 z2 z B |!<(! B2 B B B3!<)!!mf! B | %19
w: * Es|fun- keln auf mich al- le|Ster- ne mit|glü- hen- dem Lie- bes-|
 f4 z2 z!<(! B | B3!<)! B!mf! g2 f f | (e2 d2) c2 B B | B2 B B!f! c7/2 B/ | B4 z4 | z8 | z8 | z8 | %27
w: blick, es|re- det trun- ken die|Fer- * ne wie von|künf- ti- gem gro- ssen|Glück!||||
 z8 |[Q:1/4=68] z8[Q:1/4=65][Q:1/4=60][Q:1/4=62] | !fermata!z8 |] %30
w: |||
V:2
 x8 | x8 | x8 | x8 | x8 | x8 | x8 | x8 | x8 | x8 | x8 | x8 | x8 | x8 | x8 | x8 | x8 | x8 | x8 | %19
 x8 | x8 | x8 | x8 | x8 | x8 | x8 | x8 | x8 | x2"_ritard." x2 x2 x2 | x8 |] %30
V:3
 z2 (A2 d2 A2 | G8-) | (G2 F2 c2 F2-) | %3
 F2 z/ !>![FB]/z/!mp![FB]/ z/!>(! [EA]/z/[EA]/ z/ [DG]/z/!>)!!p![DG]/ | %4
 z/!<(! [CF]/z/[CF]/ z/ !>![FB]/!<)!z/!mp!"^dim."[FB]/ z/ [EA]/!>(!z/[EA]/ z/ [DG]/z/!>)!!p![DG]/ | %5
 z/ [CF]/z/[CF]/ z/ !>![Fd]/z/[Fd]/ z/ [^Ec]/z/[Ec]/ z/ [DB]/z/[DB]/ | z2 (c2 f2 c2 | B8) | %8
 z/ [EGB]/!>(!z/[EGB]/ z/ [DFB]/z/!p![DFB]/!>)! z/ [EGB]/z/[EGB]/ z/ [EGB]/z/[EGB]/ | %9
 z/ [^EG^A]/z/[EGA]/ z/ [EGA]/z/[EGA]/ z/ [DFA]/z/[DFA]/ z/ [DFA]/z/[DFA]/ | %10
 z/ [DFA]/z/[DFA]/!<(! (A2 d2!<)! A2 | G2) G6- | (G2 F2 c2 F2-) | %13
 F2 z/ !>![DFB]/z/[DFB]/ z/ [=D^EA]/z/[DEA]/ z/ [B,DEG]/z/[B,DEG]/ | %14
 z/ [A,CF]/z/[A,CF]/ z/ !>![^DFB]/z/[DFB]/ z/ [=D^EA]/z/[DEA]/ z/ [B,DEG]/z/[B,DEG]/ | %15
 z/!<(! [A,CF]/z/F/ z/ F/z/F/ z/ [^EF]/z/[EF]/ z/ [EF]/z/!<)!!mp![EF]/ | %16
 z/!<(! [C=EF]/z/[CEF]/ z/ [CEF]/z/!mp![CEF]/!<)! z/ [CEF]/z/[CEF]/ z/ [CEF]/z/[CEF]/ | %17
 z2 (F2 c2 F2) | z/ [DFB]/z/[DFB]/ z/ [DFB]/z/[DFB]/ z/ [DFB]/z/[DFB]/ z/ [DFB]/z/[DFB]/ | %19
 z2!<(! (B2!<)! f2 B2-) | (B2 B2 !>!g2 f2 | e2 d2 c2 =B2) | !>!B4"^." !>![Ac]7/2 x/4 B/4 | %23
!<(! B2 (F2!<)!!mf! d2 F2 | !>!=G6-) G7/4F/4 | F2!<(! (F2 d2!<)!!mf! F2 | !>!=G6-) G7/4F/4 | %27
!<(! F2 (F2!<)! d2 F2 | B2) F2 F2 F2 | !arpeggio!!fermata![F,DB]8 |] %30
V:4
 z/ [DF]/z/[DF]/ z/ [DF]/z/[DF]/ z/ [DF]/z/[DF]/ z/ [DF]/z/[DF]/ | %1
 z/ [DF]/z/[DF]/ z/ [DF]/z/[DF]/ z/ [CE]/z/[CE]/ z/ [CE]/z/[CE]/ | %2
 z/ [CE]/z/[CE]/ z/ [CE]/z/[CE]/ z/ [CE]/z/[CE]/ z/ [CE]/z/[CE]/ | %3
 z/!<(! [B,D]/z/[B,D]/ x2!<)! x4 | x8 | x8 | %6
 z/!<(! [FA]/z/[FA]/ z/ [FA]/z/[FA]/ z/!<)! [FA]/z/[FA]/ z/ [F=A]/z/[FA]/ | %7
 z/ [F=A]/z/[FA]/ z/ [FA]/z/[FA]/ z/ [EG]/z/[EG]/ z/ [EG]/z/[EG]/ | x8 | x8 | %10
 x2 z/ [^^C^E]/z/[CE]/ z/ [DF]/z/[DF]/ z/ [DF]/z/[DF]/ | %11
 z/ [DF]/z/[DF]/ z/ [DF]/z/[DF]/ z/ [C=E]/z/[CE]/ z/ [CE]/z/[CE]/ | %12
 z/ [CE]/z/[CE]/ z/ [CE]/z/[CE]/ z/ [CE]/z/[CE]/ z/ [CE]/z/[CE]/ | z/ [B,D]/z/[B,D]/ x2 x4 | x8 | %15
 x8 | x8 | z/ [CE]/z/[CE]/ z/!<(! [CE]/z/[CE]/!<)! z/ [CE]/z/[CE]/ z/ [CE]/z/[CE]/ | x8 | %19
 z/ [DF]/z/[DF]/ z/ [DF]/z/[DF]/ z/ [DF]/z/[DF]/ z/ [DF]/z/[DF]/ | %20
 z/ [EG]/z/[EG]/ z/ [EG]/z/[EG]/ z/ [EG]/z/[EG]/ z/ [FG]/z/[FG]/ | %21
 z/ [EG]/z/[EG]/ z/ [FG]/z/[FG]/ z/ [EG]/z/[EG]/ z/ [=DG]/z/[DG]/ | %22
 z/ [^DF]/z/[DF]/ z/ [DF]/z/[DF]/ z/ [=EF]/z/[EF]/ z/ [EF]/z/[EF]/ | %23
 z/!<(! [B,D]/z/[B,D]/ z/ [B,D]/z/!<)![B,D]/ z/ [B,D]/z/[B,D]/ z/ [B,D]/z/[B,D]/ | %24
 z/ [A,E]/z/[A,E]/ z/!>(! [A,E]/z/[A,E]/ z/ [A,E]/z/[A,E]/ z/ [A,E]/z/!mp![A,E]/!>)! | %25
 z/ [B,D]/!<(!z/[B,D]/ z/ [B,D]/z/[B,D]/ z/ [B,D]/z/!<)!!mf![B,D]/ z/ [B,D]/z/[B,D]/ | %26
 z/ [A,E]/z/[A,E]/ z/ [A,E]/z/[A,E]/ z/ [A,E]/z/[A,E]/ z/ [A,E]/z/[A,E]/ | %27
 z/ [B,D]/z/[B,D]/ z/ [B,D]/z/[B,D]/ z/!mf! [B,D]/z/[B,D]/ z/ [B,D]/z/[B,D]/ | %28
 z/ [B,D]/z/[B,D]/ z/ [B,D]/z/[B,D]/ z/ [B,D]/z/[B,D]/ z/ [B,D]/z/[B,D]/ | x8 |] %30
V:5
!p! z A,A,A, A,A,C,A, | ^B,,G,G,G, (C,G,=B,,G, | A,,)F,F,F, F,F,A,,F, | x8 | x2 !>!DD CCB,B, | %5
 A,A, x2 x4 | (F,CCC!mp! CC=E,C | D,B,B,B, E,B,B,B, | B,,B,B,B, E,B,D,B, | ^^C,A,A,A, D,)A,A,A, | %10
 A,,2 G,A,!<(! F,!<)!!mp! A,2 A, | C, G,2 G,2 G,2 G, | A,,F,F,F, F,F,A,,F, | %13
!<(! B,,F,!<)!!mp!!>!F,F, F,F,F,F, | F,F,F,F, F,F,F,F, | F,F,F,F, F,F,F,F, | %16
!ped! F,, F,/ z/ [F,A,]/z/[F,A,]/ z/ [F,A,]/z/[F,A,]/ z/ [F,A,]/z/[F,A,]/ z/!ped-up! | %17
!ped! F,,/ z/ [F,A,]/ z/ [F,A,]/z/[F,A,]/ z/ [F,A,]/z/[F,A,]/ z/ [F,A,]/z/[F,A,]/ z/!ped-up! | %18
!ped! z [=A,B,]/ z/ [A,B,]/z/!<(![A,B,]/ z/ [A,B,]/z/[A,B,]/ z/ [A,B,]/z/[A,B,]/ z/!ped-up!!<)! | %19
!mf!!ped! z [=A,B,]/ z/ [A,B,]/z/[A,B,]/ z/ [A,B,]/z/[A,B,]/ z/ [A,B,]/z/[A,B,]/ z/!ped-up! | %20
!ped! E,, [G,B,]/ z/ [G,B,]/ z/ [G,B,]/ z/ z [G,B,]/ z/ G,,/ z/ [G,^B,]/ z/!ped-up! | %21
 z [G,C]/ z/ z [G,^B,]/ z/ z [G,C]/ z/ z [G,=B,]/ z/ | %22
 z [F,B,]/ z/ [F,B,]/ z/ [F,B,]/ z/ z [F,A,C]/ z/ [F,A,C]/ z/ [F,A,C]/ z/ | z F,2!mf! F,2 F,2 F, | %24
 B,, =G,3 x4 | [B,,,F,,B,,] F,2 F,2 F,2 F, | B,, =G,3 x4 | [B,,,F,,B,,] F,2 F,2 F,2 F,- | %28
 F, F,2!<(! (F,,2!<)!!f!!>(! D,2!>)!!mf! F,,-) | !fermata![B,,,F,,B,,]8 |] %30
V:6
 (D,6 C,2 | ^B,,4) C,2 =B,,2 | A,,6 A,,2 | B,,F, !>!DD CCB,!p!B, | A,A, F,6- | %5
 F,2 !>![A,B,][A,B,] [G,B,][G,B,][C,C][C,C] | F,6 E,2 | D,4 E,4 | B,,4 E,2 D,2 | ^^C,4 D,4 | %10
 x2 G,2 F,2!>(! ^E,>!>)!!p!D, | C,2 ^B,,2 C,2 =B,,2 | A,,6 A,,2 | B,,4 z2 (B,,2 | %14
 F,,) z !>!B,,4 B,,2 | F,,8 | x8 | x8 | [F,,F,]8 | [B,,,B,,]8 | x8 | (C,2 D,2 E,2 ^E,2) | %22
 !>![F,,F,]4 [F,,,F,,]4 | [B,,,B,,]8 | x (=G,CE, G,C,F,F,,-) | x8 | x (=G,CE, G,C,F,F,,-) | %27
 [B,,,B,,]8- | [B,,,B,,]8 | x8 |] %30

